packages/jupyterlab-lsp/style/icons/hover.svg

<svg xmlns="http://www.w3.org/2000/svg" width="24" viewBox="0 0 24 24">
  <g class="jp-icon3 jp-icon-selectable" fill="#616161" shape-rendering="geometricPrecision">
    <path d="M11 18h2v-2h-2v2m1-12a4 4 0 00-4 4h2a2 2 0 012-2 2 2 0 012 2c0 2-3 1.75-3 5h2c0-2.25 3-2.5 3-5a4 4 0 00-4-4M5 3h14a2 2 0 012 2v14a2 2 0 01-2 2H5a2 2 0 01-2-2V5a2 2 0 012-2z"/>
  </g>
</svg>

<svg xmlns="http://www.w3.org/2000/svg" width="24" viewBox="0 0 24 24">
  <g class="jp-icon3 jp-icon-selectable" fill="#616161" shape-rendering="geometricPrecision">
    <path d="M11,18H13V16H11V18M12,6A4,4 0 0,0 8,10H10A2,2 0 0,1 12,8A2,2 0 0,1 14,10C14,12 11,11.75 11,15H13C13,12.75 16,12.5 16,10A4,4 0 0,0 12,6M5,3H19A2,2 0 0,1 21,5V19A2,2 0 0,1 19,21H5A2,2 0 0,1 3,19V5A2,2 0 0,1 5,3Z" />
  </g>
</svg>
